actions/24/key-enter.svg

<?xml version="1.0" encoding="UTF-8" standalone="no"?>
<svg
   width="24"
   height="24"
   version="1.1"
   id="svg9"
   sodipodi:docname="key_enter.svg"
   inkscape:version="1.1.2 (0a00cf5339, 2022-02-04)"
   xmlns:inkscape="http://www.inkscape.org/namespaces/inkscape"
   xmlns:sodipodi="http://sodipodi.sourceforge.net/DTD/sodipodi-0.dtd"
   xmlns="http://www.w3.org/2000/svg"
   xmlns:svg="http://www.w3.org/2000/svg">
  <sodipodi:namedview
     id="namedview11"
     pagecolor="#000000"
     bordercolor="#666666"
     borderopacity="1.0"
     inkscape:pageshadow="2"
     inkscape:pageopacity="0"
     inkscape:pagecheckerboard="0"
     showgrid="false"
     inkscape:zoom="56.833333"
     inkscape:cx="12"
     inkscape:cy="11.982405"
     inkscape:window-width="1837"
     inkscape:window-height="967"
     inkscape:window-x="0"
     inkscape:window-y="29"
     inkscape:window-maximized="1"
     inkscape:current-layer="g7" />
  <defs
     id="defs3">
    <style
       id="current-color-scheme"
       type="text/css">
   .ColorScheme-Text { color:#eeeeec; } .ColorScheme-Highlight { color:#367bf0; } .ColorScheme-NeutralText { color:#ffcc44; } .ColorScheme-PositiveText { color:#3db47e; } .ColorScheme-NegativeText { color:#dd4747; }
  </style>
  </defs>
  <g
     transform="translate(4,4)"
     id="g7">
    <path
       style="fill:currentColor"
       class="ColorScheme-Text"
       d="M 7,1 C 7,1 6,1 6,2 V 6 H 2 C 2,6 1,6 1,7 v 7 c 0,1 1,1 1,1 h 12 c 0,0 1,0 1,-1 V 2 C 15,1 14,1 14,1 Z m 4,3 h 1 v 7 H 8 v 0.593362 0 l -0.3712586,0.221009 -2.195424,-1.097712 v 0 L 5.4527017,10.273649 7.6904383,9.1547809 8,9.4113362 v 0 V 10 h 3 z"
       id="path5"
       sodipodi:nodetypes="csccssccsscccccccccccccccccc" />
  </g>
</svg>

<svg xmlns="http://www.w3.org/2000/svg" width="24" height="24" version="1.1">
 <defs>
  <style id="current-color-scheme" type="text/css">
   .ColorScheme-Text { color:#eeeeec; } .ColorScheme-Highlight { color:#367bf0; } .ColorScheme-NeutralText { color:#ffcc44; } .ColorScheme-PositiveText { color:#3db47e; } .ColorScheme-NegativeText { color:#dd4747; }
  </style>
 </defs>
 <g transform="translate(4,4)">
  <path style="fill:currentColor" class="ColorScheme-Text" d="M 7,1 C 7,1 6,1 6,2 V 6 H 2 C 2,6 1,6 1,7 V 14 C 1,15 2,15 2,15 H 14 C 14,15 15,15 15,14 V 2 C 15,1 14,1 14,1 Z M 11,4 H 12 V 11 H 8 V 12 L 5,10.5 8,9 V 10 H 11 Z"/>
 </g>
</svg>
